X:2
T:Muireann's Jig, pt.2
C:Niall Vallely
R:jig
M:6/8
L:1/8
K:BMin
BAF E2F|FDE FDE|FAA ABB|Bdd edB|
BAF E2F|FDE FDE|FAB def|1fed edB:|2fed e2e|]
fef b2f|fef ~a3|fba fed|fee ede|
fef b2f|fef ~a3|baf aba|1fee ede:|2fee edB|]
<abc>
